public/build/img/delete-icon.svg

<svg width="32" height="32" viewBox="0 0 32 32" fill="none" xmlns="http://www.w3.org/2000/svg">
<path d="M21.5893 8.45868L15.932 14.1147L10.276 8.45868L8.39066 10.344L14.0467 16L8.39066 21.656L10.276 23.5413L15.932 17.8853L21.5893 23.5413L23.4747 21.656L17.8187 16L23.4747 10.344L21.5893 8.45868Z" fill="white"/>
</svg>

<svg width="32" height="32" fill="none" xmlns="http://www.w3.org/2000/svg"><path d="M21.59 8.459l-5.658 5.656-5.656-5.656-1.885 1.885L14.047 16 8.39 21.656l1.885 1.885 5.656-5.656 5.657 5.656 1.886-1.885L17.819 16l5.656-5.656-1.886-1.885z" fill="#fff"/></svg>
